brandFactory_export/1.Light/Click to call_1Light.svg

<?xml version="1.0" encoding="UTF-8"?>
<svg width="24px" height="24px" viewBox="0 0 24 24" version="1.1" xmlns="http://www.w3.org/2000/svg" xmlns:xlink="http://www.w3.org/1999/xlink">
    <title>1.Light/Click to call_1Light</title>
    <g id="Symbols" stroke="none" stroke-width="1" fill="none" fill-rule="evenodd">
        <g id="1.Light/Click-to-call_1Light" fill="#5CB615" fill-rule="nonzero">
            <path d="M7.3815126,1.45210084 C7.73781513,1.80168067 8.04705882,2.19159664 8.29915966,2.62184874 C9.54957983,4.63193277 8.52773109,6.3394958 7.4487395,7.41512605 C7.25378151,7.61344538 7.04537815,7.79495798 6.82689076,7.96302521 C6.46722689,8.38991597 6.94117647,9.28403361 7.40504202,9.95966387 C8.16806723,11.0722689 9.43193277,12.3764706 10.312605,13.2571429 L10.4168067,13.3613445 C11.3008403,14.2453782 12.6016807,15.5058824 13.7142857,16.2689076 C14.3932773,16.7327731 15.2840336,17.2067227 15.7109244,16.8470588 C15.8789916,16.6285714 16.0638655,16.4201681 16.2621849,16.2252101 C17.3411765,15.1495798 19.0453782,14.1277311 21.0554622,15.3747899 C21.4823529,15.6302521 21.8756303,15.9394958 22.2252101,16.2957983 C24.1176471,18.1882353 24.1210084,20.1546218 22.2285714,22.1344538 C22.0033613,22.3697479 21.6739496,22.6420168 21.2504202,22.9512605 L21.2235294,22.9714286 L21.2067227,22.9848739 C20.5714286,23.4285714 19.7579832,23.6504202 18.810084,23.6504202 C17.7848739,23.6504202 16.605042,23.394958 15.3210084,22.8840336 C12.6621849,21.8218487 9.74789916,19.7512605 6.8907563,16.8941176 L6.88739496,16.8907563 L6.78991597,16.7932773 L6.78655462,16.789916 C3.92941176,13.9327731 1.85882353,11.0184874 0.8,8.35966387 C-0.18487395,5.89243697 -0.22184874,3.80168067 0.692436975,2.47394958 C0.695798319,2.46722689 0.702521008,2.4605042 0.705882353,2.45378151 L0.72605042,2.42689076 C1.03193277,2 1.30756303,1.67058824 1.54285714,1.4487395 C3.52268908,-0.443697479 5.48571429,-0.440336134 7.3815126,1.45210084 Z M4.53445378,0.705882353 C3.71764706,0.68907563 2.8907563,1.09243697 2.00672269,1.93613445 C1.80168067,2.13109244 1.55294118,2.4302521 1.27058824,2.82352941 C1.25714286,2.84033613 1.24705882,2.85378151 1.24033613,2.86722689 C0.870588235,3.40840336 0.68907563,4.1210084 0.705882353,4.98823529 C0.722689076,5.91260504 0.964705882,6.96470588 1.42521008,8.11428571 C2.45378151,10.6890756 4.47058824,13.5226891 7.2605042,16.3159664 L7.31092437,16.3663866 L7.31764706,16.3731092 L7.36806723,16.4201681 C10.1613445,19.2134454 12.994958,21.2302521 15.5697479,22.2554622 C16.7193277,22.7159664 17.7714286,22.9546218 18.6957983,22.9747899 C19.5630252,22.9915966 20.2756303,22.8134454 20.8168067,22.4403361 L20.8605042,22.410084 C21.2537815,22.1277311 21.5495798,21.8789916 21.7445378,21.6773109 C22.5882353,20.7932773 22.9915966,19.9663866 22.9781513,19.1495798 C22.9647059,18.3663866 22.5613445,17.589916 21.7512605,16.7798319 C21.4420168,16.4638655 21.0957983,16.1915966 20.7159664,15.9630252 L20.7058824,15.9563025 C20.0605042,15.5563025 19.4117647,15.4084034 18.7731092,15.5159664 C18.097479,15.6302521 17.4151261,16.0302521 16.7361345,16.7092437 C16.5512605,16.8907563 16.3798319,17.0890756 16.2218487,17.2941176 C16.2117647,17.307563 16.1983193,17.3210084 16.1848739,17.3344538 C14.9243697,18.4941176 12.4403361,16.3428571 9.9394958,13.8420168 L9.83529412,13.7378151 C7.34117647,11.2403361 5.18991597,8.75294118 6.34957983,7.49579832 C6.36302521,7.48235294 6.37310924,7.46890756 6.38991597,7.45882353 C6.59831933,7.30084034 6.79327731,7.12941176 6.97478992,6.94453782 C7.65042017,6.26554622 8.05378151,5.57983193 8.16806723,4.90756303 C8.27563025,4.26890756 8.12773109,3.62016807 7.72773109,2.97478992 L7.7210084,2.96470588 C7.49579832,2.58823529 7.22016807,2.23865546 6.90420168,1.93277311 C6.09411765,1.12268908 5.31764706,0.719327731 4.53445378,0.705882353 Z M19.1596639,2.69915966 C19.3848739,2.71932773 19.589916,2.83697479 19.7210084,3.01848739 L21.0957983,4.54789916 C21.2436975,4.71596639 21.3142857,4.94117647 21.2840336,5.16302521 C21.2571429,5.37478992 21.1428571,5.56638655 20.9680672,5.6907563 L17.0789916,9.11260504 L18.1008403,10.2453782 C18.2487395,10.410084 18.292437,10.605042 18.2252101,10.7798319 C18.1579832,10.9546218 17.989916,11.0655462 17.7680672,11.0823529 L12.2487395,11.5092437 C12.2285714,11.512605 12.2117647,11.512605 12.194958,11.512605 C12.0268908,11.5159664 11.8655462,11.4453782 11.7512605,11.3176471 C11.6302521,11.1764706 11.5831933,10.9848739 11.6268908,10.8 L12.789916,5.35798319 C12.8369748,5.14285714 12.9647059,4.99159664 13.1462185,4.94453782 C13.3277311,4.89747899 13.5159664,4.96134454 13.6638655,5.12268908 L14.6789916,6.24537815 L14.692437,6.24537815 L18.5815126,2.90420168 C18.7361345,2.75630252 18.9478992,2.6789916 19.1596639,2.69915966 Z M19.112605,3.37478992 C19.092437,3.37142857 19.0756303,3.37815126 19.0588235,3.38823529 C19.0521008,3.39495798 19.0420168,3.40168067 19.0352941,3.41176471 L15.1361345,6.76302521 C14.8537815,7.00168067 14.4369748,6.97478992 14.1882353,6.70252101 L13.3815126,5.81512605 L12.3092437,10.8336134 L17.3714286,10.4403361 L16.5815126,9.56302521 C16.3327731,9.28739496 16.3563025,8.86722689 16.6319328,8.61848739 C16.6352941,8.61512605 16.6352941,8.61512605 16.6386555,8.61512605 L20.5445378,5.17647059 L20.5848739,5.14621849 C20.6084034,5.13277311 20.6218487,5.1092437 20.6252101,5.08235294 C20.6285714,5.05546218 20.6218487,5.02857143 20.6084034,5.00504202 L20.605042,5.00168067 L19.2168067,3.45882353 C19.2067227,3.4487395 19.1966387,3.43865546 19.189916,3.42521008 C19.1731092,3.39831933 19.1462185,3.37815126 19.112605,3.37478992 Z" id="Click-to-call_1Light"></path>
        </g>
    </g>
</svg>

<svg width="24" height="24" viewBox="0 0 24 24" xmlns="http://www.w3.org/2000/svg"><path d="M7.382 1.452c.356.35.665.74.917 1.17 1.25 2.01.229 3.717-.85 4.793-.195.198-.404.38-.622.548-.36.427.114 1.321.578 1.997.763 1.112 2.027 2.416 2.908 3.297l.104.104c.884.884 2.185 2.145 3.297 2.908.68.464 1.57.938 1.997.578.168-.218.353-.427.551-.622 1.08-1.075 2.783-2.097 4.793-.85.427.255.82.564 1.17.92 1.893 1.893 1.896 3.86.004 5.84-.226.235-.555.507-.979.816l-.026.02-.017.014c-.636.444-1.449.665-2.397.665-1.025 0-2.205-.255-3.489-.766-2.659-1.062-5.573-3.133-8.43-5.99l-.004-.003-.097-.098-.003-.003C3.929 13.933 1.859 11.018.8 8.36-.185 5.892-.222 3.802.692 2.474l.014-.02.02-.027c.306-.427.582-.756.817-.978 1.98-1.893 3.943-1.89 5.839.003zM4.534.706c-.816-.017-1.643.386-2.527 1.23-.205.195-.454.494-.736.888a.259.259 0 00-.03.043C.87 3.408.688 4.121.705 4.988c.017.925.259 1.977.72 3.126 1.028 2.575 3.045 5.409 5.835 8.202l.05.05.007.007.05.047c2.793 2.793 5.627 4.81 8.202 5.835 1.15.461 2.201.7 3.126.72.867.017 1.58-.162 2.12-.535l.045-.03a6.71 6.71 0 00.884-.733c.843-.884 1.247-1.71 1.233-2.527-.013-.784-.417-1.56-1.227-2.37a5.181 5.181 0 00-1.035-.817l-.01-.007c-.645-.4-1.294-.548-1.933-.44-.676.114-1.358.514-2.037 1.193-.185.182-.356.38-.514.585a.403.403 0 01-.037.04c-1.26 1.16-3.745-.991-6.246-3.492l-.104-.104C7.341 11.24 5.19 8.753 6.35 7.496c.013-.014.023-.027.04-.037.208-.158.403-.33.585-.514.675-.68 1.079-1.365 1.193-2.037.108-.64-.04-1.288-.44-1.933l-.007-.01a5.043 5.043 0 00-.817-1.032c-.81-.81-1.586-1.214-2.37-1.227zM19.16 2.699a.78.78 0 01.561.32l1.375 1.529a.776.776 0 01-.128 1.143L17.08 9.113l1.022 1.132c.148.165.191.36.124.535-.067.175-.235.286-.457.302l-5.52.427c-.02.004-.036.004-.053.004a.58.58 0 01-.444-.195.587.587 0 01-.124-.518l1.163-5.442c.047-.215.175-.366.356-.413.182-.048.37.016.518.178l1.015 1.122h.013l3.89-3.34a.74.74 0 01.578-.206zm-.047.676c-.02-.004-.037.003-.054.013-.007.007-.017.014-.024.024l-3.899 3.351a.683.683 0 01-.948-.06l-.806-.888-1.073 5.019 5.062-.394-.79-.877a.666.666 0 01.05-.945c.004-.003.004-.003.008-.003l3.906-3.439.04-.03a.083.083 0 00.04-.064.125.125 0 00-.017-.077l-.003-.003-1.388-1.543a.132.132 0 01-.027-.034.104.104 0 00-.077-.05z" fill="#5CB615" fill-rule="nonzero"/></svg>
